vendor/shopware/storefront/Resources/app/storefront/dist/assets/icon/default/package-gift.svg

<svg xmlns="http://www.w3.org/2000/svg" width="24" height="24" viewBox="0 0 24 24">
  <path fill="#758CA3" fill-rule="evenodd" d="M13,7 L13,10 L22,10 L22,7 L13,7 Z M11,7 L2,7 L2,10 L11,10 L11,7 Z M11,12 L3,12 L3,22 L11,22 L11,12 Z M13,12 L13,22 L21,22 L21,12 L13,12 Z M6.33681558,5 C6.12084552,4.54537231 6,4.03679865 6,3.5 C6,1.56700338 7.56700338,0 9.5,0 C10.4793441,0 11.3647415,0.402233606 12,1.05050863 C12.6352585,0.402233606 13.5206559,0 14.5,0 C16.4329966,0 18,1.56700338 18,3.5 C18,4.03679865 17.8791545,4.54537231 17.6631844,5 L22,5 C23.1045695,5 24,5.8954305 24,7 L24,11 C24,11.5522847 23.5522847,12 23,12 L23,23 C23,23.5522847 22.5522847,24 22,24 L2,24 C1.44771525,24 1,23.5522847 1,23 L1,12 C0.44771525,12 6.76353751e-17,11.5522847 0,11 L0,7 C-1.3527075e-16,5.8954305 0.8954305,5 2,5 L6.33681558,5 Z M14.5,5 C15.3284271,5 16,4.32842712 16,3.5 C16,2.67157288 15.3284271,2 14.5,2 C13.6715729,2 13,2.67157288 13,3.5 C13,4.32842712 13.6715729,5 14.5,5 Z M9.5,5 C10.3284271,5 11,4.32842712 11,3.5 C11,2.67157288 10.3284271,2 9.5,2 C8.67157288,2 8,2.67157288 8,3.5 C8,4.32842712 8.67157288,5 9.5,5 Z"/>
</svg>

<svg xmlns="http://www.w3.org/2000/svg" width="24" height="24" viewBox="0 0 24 24"><path fill="#758CA3" fill-rule="evenodd" d="M13 7v3h9V7h-9zm-2 0H2v3h9V7zm0 5H3v10h8V12zm2 0v10h8V12h-8zM6.3368 5A3.4864 3.4864 0 0 1 6 3.5C6 1.567 7.567 0 9.5 0c.9793 0 1.8647.4022 2.5 1.0505C12.6353.4022 13.5207 0 14.5 0 16.433 0 18 1.567 18 3.5a3.4864 3.4864 0 0 1-.3368 1.5H22c1.1046 0 2 .8954 2 2v4c0 .5523-.4477 1-1 1v11c0 .5523-.4477 1-1 1H2c-.5523 0-1-.4477-1-1V12c-.5523 0-1-.4477-1-1V7c0-1.1046.8954-2 2-2h4.3368zM14.5 5c.8284 0 1.5-.6716 1.5-1.5S15.3284 2 14.5 2 13 2.6716 13 3.5 13.6716 5 14.5 5zm-5 0c.8284 0 1.5-.6716 1.5-1.5S10.3284 2 9.5 2 8 2.6716 8 3.5 8.6716 5 9.5 5z"/></svg>
